X:14970
T:Schottisch 
B:"Schule fr bhmischen Bock", Band I, R.Lughofer, Eigenverlag, Kremsmnster 1998 
A:Egerland
Z:abc transcription Simon Wascher
N:please mail errors to: simon.wascher@chello.at
M:2/4
L:1/16
K:F
c2c2 ABcd|c2BAB4|B2B2 GABc|B2AGA4|
A2A2 FGAB|A2GF G2Gd|c2cd cABG|A2c2A4:|
|:d4d4|cdcB A2c2|BcBA G2B2|AGAB cFAc|
d4d4|cdcB A2c2|BcBA GABG|A2c2A4:|
|:A2AG A2B2|GAB2A4|GAB2B4|ABc2c4|
A2AG A2B2|GAB2A4|GAB2 GABG|A2c2A4:|
